svgs/solid/face-grin-tongue-squint.svg

<svg xmlns="http://www.w3.org/2000/svg" viewBox="0 0 512 512"><!--! Font Awesome Pro 6.0.0-alpha3 by @fontawesome - https://fontawesome.com License - https://fontawesome.com/license (Commercial License) --><path d="M256 0C114.6 0 0 114.6 0 256c0 112.8 73.08 208.4 174.4 242.5C165.4 484.1 160 467.2 160 449.1V407.6c0-1.578 .5508-3.037 .668-4.596c-25.04-16.24-44.12-38.28-48.53-64.26c-1.938-12 9.445-21.62 20.71-18C163.1 330.5 208 336 256 336s92.88-5.5 123.2-15.25c11.38-3.625 22.52 6.125 20.71 18c-4.406 25.99-23.49 48.03-48.54 64.27C351.4 404.6 352 406 352 407.6V450c0 17.38-5.1 33.87-14.06 48.36C439.1 464.2 512 368.7 512 256C512 114.6 397.4 0 256 0zM222.2 218.3l-80.04 48c-11.5 6.875-23.98-7.5-15.38-18L160.5 208l-33.66-40.25c-8.598-10.38 3.754-25 15.38-18l80.04 48C229.1 202.4 229.1 213.6 222.2 218.3zM369.8 266.3l-80.04-48c-7.629-4.625-7.629-15.88 0-20.5l80.04-48c11.62-7 23.98 7.625 15.38 18L351.5 208l33.66 40.25C393.9 258.8 381.3 273.1 369.8 266.3zM301.6 379.3c-.2988-.1328-.375-.1562-.5859-.2422c-14.29-6.297-31 2.055-34.51 17.07l-1.816 7.508c-2.059 8.961-15.26 8.961-17.32 0l-1.816-7.508c-3.512-15.02-20.22-23.37-34.63-17.07c-.2715 .1133-.3301 .1328-.9199 .4062C199 384.6 192 395.5 192 407.6v41.54c0 34.15 28.12 62.48 63.11 62.84C290.8 512.5 320 484.5 320 449.1v-42.35C320 395.4 312.8 384.1 301.6 379.3z"/></svg>

<svg xmlns="http://www.w3.org/2000/svg" viewBox="0 0 512 512"><!-- Font Awesome Pro 6.0.0-alpha2 by @fontawesome - https://fontawesome.com License - https://fontawesome.com/license (Commercial License) --><path d="M301.574 379.275C301.275 379.142 301.199 379.118 300.988 379.032C286.699 372.736 269.986 381.087 266.475 396.103L264.658 403.611C262.6 412.572 249.4 412.572 247.342 403.611L245.525 396.103C242.014 381.087 225.303 372.736 210.891 379.032C210.619 379.146 210.561 379.165 209.971 379.439C199.045 384.552 192 395.544 192 407.607V449.146C192 483.294 220.096 511.634 255.092 511.994C290.816 512.478 320 484.505 320 449.994V407.646C320 395.38 312.842 384.122 301.574 379.275ZM256 16C123.461 16 16 123.418 16 256.001C16 356.364 77.633 442.208 165.057 478.048C162.047 468.873 160 459.275 160 449.146V407.607C160 406.033 160.551 404.572 160.668 403.017C135.627 386.775 116.547 364.739 112.141 338.751C110.203 326.751 121.586 317.126 132.848 320.751C163.121 330.501 208.047 336.001 256 336.001S348.879 330.501 379.152 320.751C390.656 317.126 401.676 327.001 399.859 338.751C395.453 364.743 376.369 386.782 351.324 403.025C351.441 404.595 352 406.048 352 407.646V449.994C352 459.798 350.025 469.08 347.158 477.97C434.471 442.079 496 356.282 496 256.001C496 123.418 388.539 16 256 16ZM222.215 218.251L142.172 266.251C130.668 273.126 118.195 258.751 126.793 248.251L160.457 208.001L126.793 167.75C118.195 157.375 130.547 142.75 142.172 149.75L222.215 197.751C229.965 202.376 229.965 213.626 222.215 218.251ZM369.828 266.251L289.785 218.251C282.156 213.626 282.156 202.376 289.785 197.751L369.828 149.75C381.453 142.75 393.805 157.375 385.207 167.75L351.543 208.001L385.207 248.251C393.926 258.751 381.332 273.126 369.828 266.251Z"/></svg>
